svg/u1f95e.svg

<svg viewBox="0 0 128 128" xmlns="http://www.w3.org/2000/svg">
  <path d="M87.7,110.45c0,0-28.85,4.11-29.55,5.05c-0.6,0.79-1.12,1.46,1.92,4.12 c2.84,2.48,14.05,10.1,37.68,2.95c13.66-4.13,20.21-17.15,18.02-20.86s-5.68-2.4-5.68-2.4L87.7,110.45z" fill="#D17020"/>
  <path d="M64.54,112.52c0,0-7.28-0.02-6.51,3.14c0.28,1.17,7.92,3.32,13.05,3.64 c5.24,0.33,14.01,0.39,25.59-4.2c9.74-3.86,13.83-7.17,16.69-11.7c1.38-2.19,0.11-4.93,0.11-4.93L64.54,112.52z" fill="#AC5811"/>
  <path d="M8.75,69.52c0,0-1.54,1.21-2.97,5.84c-1.07,3.45-2.97,8.7-0.31,14.6 c1.89,4.19,11.79,24.78,55.55,26.53c46.09,1.84,58.52-22.47,60.01-28.23c2.23-8.67-1.05-13.13-2.49-14.18 C117.08,73.02,8.75,69.52,8.75,69.52z" fill="#FCE9C5"/>
  <path d="M14.66,66.58c-0.26,0.39-7.35,4.86-7.35,4.86s-3.68,8.01,2.89,16.68S30.94,107.03,61.28,109 c30.33,1.97,53.71-10.9,57.52-23.37c3.81-12.47-3.84-14.94-3.84-14.94L14.66,66.58z" fill="#FFA828"/>
  <path d="M77.95,93.5c-0.13,1.44,1.21,5.21,5.6,8.32c3.31,2.35,6.23,3.2,6.61,3.49 c0.05,1.08,0.29,6.9-0.49,8.61c-0.79,1.71-6.07,2.42-6.07,2.42h8.14c0,0,5.12,1.84,5.12-3.15s1.07-10.31,1.86-11.88 c0.43-0.85,3.79-2.68,6.03-5.66c1.9-2.54,2.52-5.23,2.75-6.36s0.95-3.59-0.79-4.73C104.76,83.3,77.95,93.5,77.95,93.5z" fill="#AB580F"/>
  <path d="M8.62,48.2c0,0-4.86,4.86-4.33,14.31s11.16,32.7,57.52,34.27c45.69,1.55,59.81-23.1,61.45-30.33 c1.5-6.61-0.38-11.75-3.4-15.82s-71.58-7.29-71.58-7.29L8.62,48.2z" fill="#FCE9C5"/>
  <path d="M12.3,45.57c0,0-6.48,2.45-6.04,10.51c0.53,9.72,15.63,32.57,57.38,32.43 c37.16-0.12,57.52-20.35,57.78-30.99c0.26-10.51-8.01-11.03-8.01-11.03L12.3,45.57z" fill="#FFA828"/>
  <path d="M92.4,66.06L64.82,70c0,0,2.01,5.12,9.45,8.67c8.27,3.94,15.23,3.15,15.63,5.78 c0.39,2.63,0.78,10.45,0.78,10.45l3.16-0.6l7.98-19.73l4.03-5.04c0,0,2.56-7.14-0.33-9.76C102.64,57.13,92.4,66.06,92.4,66.06z" fill="#AF5713"/>
  <path d="M26.35,18.52c-0.39,0-10.64,1.44-10.64,1.44S7,24.66,6.65,37.3C6.25,51.48,19.39,71.05,62.33,71.31 c43.99,0.27,58.94-17.04,59.88-29.02c1.12-14.27-6.96-20.1-6.96-20.1L26.35,18.52z" fill="#FCE9C5"/>
  <path d="M10.46,31.52c0.15,15.23,16.41,30.33,53.44,31.65c36.14,1.28,55.94-16.28,55.81-30.99 C119.59,18.52,97.79,5.26,63.25,5.13C28.18,5,10.33,18.13,10.46,31.52z" fill="#FFA828"/>
  <path d="M85.37,75.82c0.1,3.05,7.4,4.36,7.84,6.75c0.44,2.4,0.66,12.04,0.66,12.04s-1.99,0.83-4.2,1.29 c-2.5,0.52-5.23,0.75-4.82,2.18c1.01,3.47,8.42,5.25,8.42,5.25s0.35,5.37,0.22,7.62c-0.3,5.27-1.75,6.17-1.75,6.17l3.64,2.97 l4.57-5.65c0,0-0.22-5.08-0.29-6.75c-0.07-1.67-0.22-5.15-0.22-5.15s3.66-2.71,6.13-7.47c1.84-3.55,1.86-6.1-0.46-5.01 c-2.32,1.09-5.98,3.11-5.98,3.11s-0.48-8.92,0.31-11.24c0.8-2.32,7.19-11.25,6.24-12.78s-6.75,1.81-10.24,2.76 C91.97,72.84,85.29,73.64,85.37,75.82z" fill="#D0701C"/>
  <path d="M46.8,5.2c0,0-8.71,0.91-9.52,6.53c-0.82,5.62,0.27,6.44-3.36,8.53s-13.82,7.51-14.37,9.5 s-1.69,7.72,11.19,9.18c8.91,1.01,11.6-0.11,16.87,3.7s6.41,10.76,14.95,13.72c5.66,1.96,9.63,0.36,14.35,2.63 c4.72,2.27,9.17,6.67,14.38,5.66c4.4-0.85,7.28-14.06,7.28-14.34s0.45-15.23,0.45-15.23s-1.96-2.63-0.61-5.3 c0.92-1.83,7.8-6.5,8.8-9.25c0.94-2.58,0.53-5.39-0.74-6.39s-14.95,1.59-15.22,1.22s-16.51-3.81-18.87-4.54 C70.02,10.1,46.8,5.2,46.8,5.2z" fill="#AB580F"/>
  <path d="M95.6,28.51c-0.65,5.77,6.81,5.99,7.08,13.61c0.18,5.26-3.45,8.44-4.99,12.06 c-1.54,3.63-3.63,6.8-6.98,7.53c-3.36,0.73-9.36-4.11-14.53-6.02c-5.17-1.9-8.01,1.12-15.74-3.25c-4.56-2.57-9.55-12.96-15.72-14.77 c-2.81-0.83-8.94-0.67-14.07-1.36c-6.13-0.83-11.13-2.62-11.24-5.44c-0.27-7.44,17.51-10.7,19.23-13.33 c1.72-2.63-2.29-10.95,8.53-12.79c14.42-2.45,21.23,3.63,30.2,5.26s24.27,0.05,28.12,3.08C112.38,18.53,96.24,22.89,95.6,28.51z" fill="#CF701E"/>
  <path d="M53.83,30.15c0.23,0.9,1.31,7.13,4.4,8.19c3.09,1.05,9.86-0.79,15.66-2.03 c7.27-1.56,15.53-2.97,15.27-5.03c-0.39-3.19-4.15-6.55-7.34-11.14c-1.94-2.8-3.8-7.09-6.81-6.49S53.83,30.15,53.83,30.15z" fill="#AC5813"/>
  <path d="M27.28,26.44c-1.77,0.44-2.75,4.13,1.13,5.95c4.97,2.33,10.92,2.03,11.3-0.53 c0.38-2.56-5.42-1.96-7.38-3.31C30.37,27.19,29.69,25.84,27.28,26.44z" fill="#FDFFFC"/>
  <path d="M42.8,32.61c-1.26,1.17,0.1,2.49,1.74,3.12s2.94,0.68,3.68-0.3c0.74-0.97-0.69-2.49-2.14-2.92 C44.63,32.08,43.56,31.9,42.8,32.61z" fill="#FDFFFC"/>
  <path d="M48.85,16.18c0,0,0.48-1.44,2.82-1.81c2.34-0.37,8.15-0.37,10.7-0.96c2.56-0.59,6.87-2.77,9.1-2.29 c2.24,0.48,4.52,5.35,5.09,6.26c2.41,3.81,4.33,6.51,4.59,7.95c0.27,1.44-11.87,6.5-12.45,6.5s-9,5.8-11.29,1.12 S48.95,16.02,48.85,16.18z" fill="#FADE62"/>
  <path d="M67.64,27.73c-2.82,0.59-10.06,2.56-10.06,2.56l-1.17,3.03c0,0,0.48,2.4,2.13,2.5 c1.65,0.11,7-1.42,11.09-2.48c3.73-0.97,11.28-2.74,11.6-3.43s0.67-4.97-0.28-5.14c-0.58-0.1-3.82,0.77-5.63,1.2 C72.77,26.57,70.46,27.15,67.64,27.73z" fill="#F5AD02"/>
  <path d="M47.85,20.07c0.22,0.68,2.13,4.79,3.67,7.24s5.22,8.44,6.28,8.55c0.97,0.1,0.87-1.56,0.95-2.63 c0.09-1.23,0.06-2.35-0.2-3.2c-0.27-0.85-2.56-4.47-3.78-6.39s-4.79-8.25-5.59-7.99C48.38,15.92,47.48,18.9,47.85,20.07z" fill="#FDFFFC"/>
  <path d="M58.21,43.09c-1.7,0.85,0.37,5.75,5,7.88c4.63,2.13,9.55,1.81,10.38-0.75 c0.75-2.29-5.52-2.37-8.09-3.62C61.35,44.58,60.5,41.94,58.21,43.09z" fill="#FDFFFC"/>
  <path d="M34.47,78.83c-0.27,1.01,0.45,1.94,3.18,2.54c2.74,0.6,3.83,0.35,4.13-0.6 c0.3-0.95-0.6-1.89-3.04-2.54C36.03,77.51,34.67,78.08,34.47,78.83z" fill="#FCE9C5"/>
  <path d="M52.83,82.51c-0.4,1.29,1.44,3.13,7.12,3.33c5.93,0.21,9.26-0.55,9.3-2.64 c0.03-1.4-4.53-0.85-9.11-1.09C55.57,81.86,53.2,81.32,52.83,82.51z" fill="#FCE9C5"/>
  <path d="M17.95,90.47c-0.64,0.72-0.24,1.47,0.9,2.44c1.34,1.14,3.18,1.54,3.93,0.65s-1-1.89-1.99-2.64 C19.79,90.17,18.74,89.57,17.95,90.47z" fill="#FCE9C5"/>
</svg>

<svg viewBox="0 0 128 128" xmlns="http://www.w3.org/2000/svg">
  <defs/>
  <path d="M87.7,110.45 C87.7,110.45 58.85,114.56 58.15,115.5 C57.55,116.29 57.03,116.96 60.07,119.62 C62.91,122.1 74.12,129.72 97.75,122.57 C111.41,118.44 117.96,105.42 115.77,101.71 C113.58,98 110.09,99.31 110.09,99.31 L87.7,110.45 Z" fill="#D17020"/>
  <path d="M64.54,112.52 C64.54,112.52 57.26,112.5 58.03,115.66 C58.31,116.83 65.95,118.98 71.08,119.3 C76.32,119.63 85.09,119.69 96.67,115.1 C106.41,111.24 110.5,107.93 113.36,103.4 C114.74,101.21 113.47,98.47 113.47,98.47 L64.54,112.52 Z" fill="#AC5811"/>
  <path d="M8.75,69.52 C8.75,69.52 7.21,70.73 5.78,75.36 C4.71,78.81 2.81,84.06 5.47,89.96 C7.36,94.15 17.26,114.74 61.02,116.49 C107.11,118.33 119.54,94.02 121.03,88.26 C123.26,79.59 119.98,75.13 118.54,74.08 C117.08,73.02 8.75,69.52 8.75,69.52 Z" fill="#FCE9C5"/>
  <path d="M14.66,66.58 C14.4,66.97 7.31,71.44 7.31,71.44 C7.31,71.44 3.63,79.45 10.2,88.12 C16.77,96.79 30.94,107.03 61.28,109 C91.61,110.97 114.99,98.1 118.8,85.63 C122.61,73.16 114.96,70.69 114.96,70.69 L14.66,66.58 Z" fill="#FFA828"/>
  <path d="M77.95,93.5 C77.82,94.94 79.16,98.71 83.55,101.82 C86.86,104.17 89.78,105.02 90.16,105.31 C90.21,106.39 90.45,112.21 89.67,113.92 C88.88,115.63 83.6,116.34 83.6,116.34 L91.74,116.34 C91.74,116.34 96.86,118.18 96.86,113.19 C96.86,108.2 97.93,102.88 98.72,101.31 C99.15,100.46 102.51,98.63 104.75,95.65 C106.65,93.11 107.27,90.42 107.5,89.29 C107.73,88.16 108.45,85.7 106.71,84.56 C104.76,83.3 77.95,93.5 77.95,93.5 Z" fill="#AB580F"/>
  <path d="M8.62,48.2 C8.62,48.2 3.76,53.06 4.29,62.51 C4.82,71.96 15.45,95.21 61.81,96.78 C107.5,98.33 121.62,73.68 123.26,66.45 C124.76,59.84 122.88,54.7 119.86,50.63 C116.84,46.56 48.28,43.34 48.28,43.34 L8.62,48.2 Z" fill="#FCE9C5"/>
  <path d="M12.3,45.57 C12.3,45.57 5.82,48.02 6.26,56.08 C6.79,65.8 21.89,88.65 63.64,88.51 C100.8,88.39 121.16,68.16 121.42,57.52 C121.68,47.01 113.41,46.49 113.41,46.49 L12.3,45.57 Z" fill="#FFA828"/>
  <path d="M92.4,66.06 L64.82,70 C64.82,70 66.83,75.12 74.27,78.67 C82.54,82.61 89.5,81.82 89.9,84.45 C90.29,87.08 90.68,94.9 90.68,94.9 L93.84,94.3 L101.82,74.57 L105.85,69.53 C105.85,69.53 108.41,62.39 105.52,59.77 C102.64,57.13 92.4,66.06 92.4,66.06 Z" fill="#AF5713"/>
  <path d="M26.35,18.52 C25.96,18.52 15.71,19.96 15.71,19.96 C15.71,19.96 7,24.66 6.65,37.3 C6.25,51.48 19.39,71.05 62.33,71.31 C106.32,71.58 121.27,54.27 122.21,42.29 C123.33,28.02 115.25,22.19 115.25,22.19 L26.35,18.52 Z" fill="#FCE9C5"/>
  <path d="M10.46,31.52 C10.61,46.75 26.87,61.85 63.9,63.17 C100.04,64.45 119.84,46.89 119.71,32.18 C119.59,18.52 97.79,5.26 63.25,5.13 C28.18,5 10.33,18.13 10.46,31.52 Z" fill="#FFA828"/>
  <path d="M85.37,75.82 C85.47,78.87 92.77,80.18 93.21,82.57 C93.65,84.97 93.87,94.61 93.87,94.61 C93.87,94.61 91.88,95.44 89.67,95.9 C87.17,96.42 84.44,96.65 84.85,98.08 C85.86,101.55 93.27,103.33 93.27,103.33 C93.27,103.33 93.62,108.7 93.49,110.95 C93.19,116.22 91.74,117.12 91.74,117.12 L95.38,120.09 L99.95,114.44 C99.95,114.44 99.73,109.36 99.66,107.69 C99.59,106.02 99.44,102.54 99.44,102.54 C99.44,102.54 103.1,99.83 105.57,95.07 C107.41,91.52 107.43,88.97 105.11,90.06 C102.79,91.15 99.13,93.17 99.13,93.17 C99.13,93.17 98.65,84.25 99.44,81.93 C100.24,79.61 106.63,70.68 105.68,69.15 C104.73,67.62 98.93,70.96 95.44,71.91 C91.97,72.84 85.29,73.64 85.37,75.82 Z" fill="#D0701C"/>
  <path d="M46.8,5.2 C46.8,5.2 38.09,6.11 37.28,11.73 C36.46,17.35 37.55,18.17 33.92,20.26 C30.29,22.35 20.1,27.77 19.55,29.76 C19,31.75 17.86,37.48 30.74,38.94 C39.65,39.95 42.34,38.83 47.61,42.64 C52.88,46.45 54.02,53.4 62.56,56.36 C68.22,58.32 72.19,56.72 76.91,58.99 C81.63,61.26 86.08,65.66 91.29,64.65 C95.69,63.8 98.57,50.59 98.57,50.31 C98.57,50.03 99.02,35.08 99.02,35.08 C99.02,35.08 97.06,32.45 98.41,29.78 C99.33,27.95 106.21,23.28 107.21,20.53 C108.15,17.95 107.74,15.14 106.47,14.14 C105.2,13.14 91.52,15.73 91.25,15.36 C90.98,14.99 74.74,11.55 72.38,10.82 C70.02,10.1 46.8,5.2 46.8,5.2 Z" fill="#AB580F"/>
  <path d="M95.6,28.51 C94.95,34.28 102.41,34.5 102.68,42.12 C102.86,47.38 99.23,50.56 97.69,54.18 C96.15,57.81 94.06,60.98 90.71,61.71 C87.35,62.44 81.35,57.6 76.18,55.69 C71.01,53.79 68.17,56.81 60.44,52.44 C55.88,49.87 50.89,39.48 44.72,37.67 C41.91,36.84 35.78,37 30.65,36.31 C24.52,35.48 19.52,33.69 19.41,30.87 C19.14,23.43 36.92,20.17 38.64,17.54 C40.36,14.91 36.35,6.59 47.17,4.75 C61.59,2.3 68.4,8.38 77.37,10.01 C86.34,11.64 101.64,10.06 105.49,13.09 C112.38,18.53 96.24,22.89 95.6,28.51 Z" fill="#CF701E"/>
  <path d="M53.83,30.15 C54.06,31.05 55.14,37.28 58.23,38.34 C61.32,39.39 68.09,37.55 73.89,36.31 C81.16,34.75 89.42,33.34 89.16,31.28 C88.77,28.09 85.01,24.73 81.82,20.14 C79.88,17.34 78.02,13.05 75.01,13.65 C72,14.25 53.83,30.15 53.83,30.15 Z" fill="#AC5813"/>
  <path d="M27.28,26.44 C25.51,26.88 24.53,30.57 28.41,32.39 C33.38,34.72 39.33,34.42 39.71,31.86 C40.09,29.3 34.29,29.9 32.33,28.55 C30.37,27.19 29.69,25.84 27.28,26.44 Z" fill="#FDFFFC"/>
  <path d="M42.8,32.61 C41.54,33.78 42.9,35.1 44.54,35.73 C46.18,36.36 47.48,36.41 48.22,35.43 C48.96,34.46 47.53,32.94 46.08,32.51 C44.63,32.08 43.56,31.9 42.8,32.61 Z" fill="#FDFFFC"/>
  <path d="M48.85,16.18 C48.85,16.18 49.33,14.74 51.67,14.37 C54.01,14 59.82,14 62.37,13.41 C64.93,12.82 69.24,10.64 71.47,11.12 C73.71,11.6 75.99,16.47 76.56,17.38 C78.97,21.19 80.89,23.89 81.15,25.33 C81.42,26.77 69.28,31.83 68.7,31.83 C68.12,31.83 59.7,37.63 57.41,32.95 C55.12,28.27 48.95,16.02 48.85,16.18 Z" fill="#FADE62"/>
  <path d="M67.64,27.73 C64.82,28.32 57.58,30.29 57.58,30.29 L56.41,33.32 C56.41,33.32 56.89,35.72 58.54,35.82 C60.19,35.93 65.54,34.4 69.63,33.34 C73.36,32.37 80.91,30.6 81.23,29.91 C81.55,29.22 81.9,24.94 80.95,24.77 C80.37,24.67 77.13,25.54 75.32,25.97 C72.77,26.57 70.46,27.15 67.64,27.73 Z" fill="#F5AD02"/>
  <path d="M47.85,20.07 C48.07,20.75 49.98,24.86 51.52,27.31 C53.06,29.76 56.74,35.75 57.8,35.86 C58.77,35.96 58.67,34.3 58.75,33.23 C58.84,32 58.81,30.88 58.55,30.03 C58.28,29.18 55.99,25.56 54.77,23.64 C53.55,21.72 49.98,15.39 49.18,15.65 C48.38,15.92 47.48,18.9 47.85,20.07 Z" fill="#FDFFFC"/>
  <path d="M58.21,43.09 C56.51,43.94 58.58,48.84 63.21,50.97 C67.84,53.1 72.76,52.78 73.59,50.22 C74.34,47.93 68.07,47.85 65.5,46.6 C61.35,44.58 60.5,41.94 58.21,43.09 Z" fill="#FDFFFC"/>
  <path d="M34.47,78.83 C34.2,79.84 34.92,80.77 37.65,81.37 C40.39,81.97 41.48,81.72 41.78,80.77 C42.08,79.82 41.18,78.88 38.74,78.23 C36.03,77.51 34.67,78.08 34.47,78.83 Z" fill="#FCE9C5"/>
  <path d="M52.83,82.51 C52.43,83.8 54.27,85.64 59.95,85.84 C65.88,86.05 69.21,85.29 69.25,83.2 C69.28,81.8 64.72,82.35 60.14,82.11 C55.57,81.86 53.2,81.32 52.83,82.51 Z" fill="#FCE9C5"/>
  <path d="M17.95,90.47 C17.31,91.19 17.71,91.94 18.85,92.91 C20.19,94.05 22.03,94.45 22.78,93.56 C23.53,92.67 21.78,91.67 20.79,90.92 C19.79,90.17 18.74,89.57 17.95,90.47 Z" fill="#FCE9C5"/>
</svg>
